X: 8632
T: Crooked Still
R: reel
M: 4/4
K: Dmajor
F|:GBdf e2dB|dBef eddF|GBdf e2dB|dafe eddF|
GBdf e2dB|dBef ed(3Bcd|affe edBd-|dfed d3z:|
|:DGBd a2gf-|f2Bd a2gf-|f2Bd f2ed|deA2 ABd2|
DGBd a2gf-|f2Bd a2gf-|f2Bd f2ed|1 deA2 ABd2:|2 de A2 dcBA||

